-----BEGIN PGP SIGNED MESSAGE-----
Hash: SHA512

SHA256 (FreeBSD-14.5-RELEASE-amd64-BASIC-CLOUDINIT-ufs.qcow2.xz) = a2a8cd84cd59077225a0e75ead852e8a08fe26f9ab251a96d5a4fd4fe1db4454
SHA256 (FreeBSD-14.5-RELEASE-amd64-BASIC-CLOUDINIT-ufs.raw.xz) = f5fe75766bb152293384a34ab392c4cc101921d20cb7f45e8f3b9609bc977104
SHA256 (FreeBSD-14.5-RELEASE-amd64-BASIC-CLOUDINIT-zfs.qcow2.xz) = 126138a9e3b68641579b9f05105c1fdd9dc2e0eb2b5a02737908f629888fe8e7
SHA256 (FreeBSD-14.5-RELEASE-amd64-BASIC-CLOUDINIT-zfs.raw.xz) = fc22b709db0e384de89e2048903790e726867071470765b924445cdeceea0c65
SHA256 (FreeBSD-14.5-RELEASE-amd64-ufs.qcow2.xz) = a027c3a9deafa5af07a8f910c38aed3a58e9adefa18ffb040bc512ecfbc1799a
SHA256 (FreeBSD-14.5-RELEASE-amd64-ufs.raw.xz) = 1dd19661a4dd0ab80b2315a352245ff38b28f1e96b4ea982bf833daa826254e7
SHA256 (FreeBSD-14.5-RELEASE-amd64-ufs.vhd.xz) = 26bdacc73d4ea12163142e8d25a1a27cf9adc2a8b0ab751001d53fe2e005ef2b
SHA256 (FreeBSD-14.5-RELEASE-amd64-ufs.vmdk.xz) = 5de60a19be87c0e51524520e2a21de920bb428d698a7ecd54b5466dc3e3cc4f0
SHA256 (FreeBSD-14.5-RELEASE-amd64-zfs.qcow2.xz) = 7060198dad071373d42b21ba492c83c9451bf94335870644ef4b30dcf6cca9c8
SHA256 (FreeBSD-14.5-RELEASE-amd64-zfs.raw.xz) = 1e5428fb486b4ea3ab660456ab1a969694b669945c0cfe617afcf61f38c36d6d
SHA256 (FreeBSD-14.5-RELEASE-amd64-zfs.vhd.xz) = f83551519b5bc20279fb13ac3a2e88f9ef3d5c419436e01491dbd879274a81be
SHA256 (FreeBSD-14.5-RELEASE-amd64-zfs.vmdk.xz) = 308044c799953264ea886c77406bd243839e16eb0ed57916c8533129813cd154
SHA256 (FreeBSD-14.5-RELEASE-amd64.qcow2.xz) = a027c3a9deafa5af07a8f910c38aed3a58e9adefa18ffb040bc512ecfbc1799a
SHA256 (FreeBSD-14.5-RELEASE-amd64.raw.xz) = 1dd19661a4dd0ab80b2315a352245ff38b28f1e96b4ea982bf833daa826254e7
SHA256 (FreeBSD-14.5-RELEASE-amd64.vhd.xz) = 26bdacc73d4ea12163142e8d25a1a27cf9adc2a8b0ab751001d53fe2e005ef2b
SHA256 (FreeBSD-14.5-RELEASE-amd64.vmdk.xz) = 5de60a19be87c0e51524520e2a21de920bb428d698a7ecd54b5466dc3e3cc4f0
-----BEGIN PGP SIGNATURE-----

iQJPBAEBCgA5FiEEglY7hNBiDtwN+4ZBOJfy4i5lrT8FAmqa93AbFIAAAAAABAAO
bWFudTIsMi41KzEuMTIsMiwzAAoJEDiX8uIuZa0/BSAP/A/u4FQB5cdYuRmjmIqA
c2ovMMPzO+PCRwEyvlc8OyiAlMOtSAhWWxkxTnOIyvZ5nwzA5IZ5Xoc+iNcJOIVn
UhNBBAI9Kws9BIsCsxv5y0wUe/bLa/ayxsrbEcUu0NHBYXZVdTx4TzEaGQ1s78GF
iNonXfvTZcJM9kHm0H/ea8n98LovyAoHAnnJ+3Tm9SdHMTLZHfaO3l3wr+na3kMp
m7XrzGDFFda+tHnHLIoAC080Fx8UMVdOaisY1ELkx6r9VRNu7KeYjEOvIANwlAb2
nqN3o5UfDcOCJLDOqUnJgDuGHMUxj+wMH+G9QFhd9+TLVw0EX4PSSQCdeyTw8Vre
n+2KrJaIaP6+zGLPomCtS44vaCSjm+IW5rcz270OR+wfh+IyqQPFYnNGuT0y0P7o
z7kHdvGbDaMPRLgRCi3D+9rLATFr1cGb+mywtB5uv1OuAmYQqWYaxij1aqfak7wm
FOqwibmqfL6MTe7aLjbHFZT462krUddtKcXETCGSeNCepMKM0RTbc+1Sl9MmUNin
T9ki14jK+zNRRe8bVIfsuiEoadZ0cqC9p7rdlDKMaEOb2zdEmtjekCrKnTxxZaMq
Cz7HNIW5i+ea0PXpMtdhmVikKFVdN1PMpEYtelbnZdu6pqqYjfU9ZUT8GwyV72Rj
Ii/km7YFX1+JC26qniDY28u1
=9PYc
-----END PGP SIGNATURE-----
