-----BEGIN PGP SIGNED MESSAGE-----
Hash: SHA512

SHA512 (FreeBSD-14.5-BETA1-powerpc-powerpcspe-bootonly.iso) = 6a4b64ee81f10e16cdf9dafdb262b3f294eccb112b06526990a54eac114549c2d6233ec6bb49c6e73975dd579a525f95b09e6a5fbe415bc4780cdddff01d56f9
SHA512 (FreeBSD-14.5-BETA1-powerpc-powerpcspe-bootonly.iso.xz) = 3aee90fc475b1f7e440b94a0cf46405cbcd64be7698dd08a66e5357c5a69bcd5c7f96b8903a52cab33d3d541244922cec84d8b489670aeaf7f979bdcdb7fef45
SHA512 (FreeBSD-14.5-BETA1-powerpc-powerpcspe-disc1.iso) = b210015dca3c0daba9b5678af47c42358733b33dea4c3f69e0daab220ae8ed53a42ec66c147a9e7bce971ad3f51cd38ce2156e52d58584908bc4632bac7b0dab
SHA512 (FreeBSD-14.5-BETA1-powerpc-powerpcspe-disc1.iso.xz) = 24a592543272021c5fc499fcea091880cc3fda696038685f681754db74529106270420c5de3fc3ccd86f22dd89f80850d019aff0f2517b4e10ced33a342cc8ca
-----BEGIN PGP SIGNATURE-----

iQJPBAEBCgA5FiEEglY7hNBiDtwN+4ZBOJfy4i5lrT8FAmp4EJQbFIAAAAAABAAO
bWFudTIsMi41KzEuMTIsMiwzAAoJEDiX8uIuZa0/XfAP/R7npWexZWD2E/pJ89UC
plBUz7LxG0aomvPDCDbVQVtwvMp9wnPNpVklZ8YutSnr7Jp0H/ADoZgMeHzjQ5Ri
cKYVj8gjIbL3qU0eu879u8AYmHiy75j1jlS1jemEIElTxuUR3Uprm4DAftKEHuqW
VQmyghqUlR2vzHL1loc1savlzyic/uBh8jykr5a0cO3snCyxo5+G/ElzC2n+gs86
NDcVY6W630QZIiwf422+N3+EGEbjKQycq6SST17M8BjaPlkJ5dEdsjyE7xbqdTiF
EPxHsQwaYnNBcYjJZjLX07NPrvKK07h9xBVvfTZyG+Znt23qePpT3whUlIfTP5wj
tLMCZqLAJSa94p8eXJ9+shMHqfM6PDi/W/1Q2NSGdGa7I1DLT8sjEwArkzTxVTBp
I/+2Yt6CW3ZzYQvD89lFAzT28X/MNQsy94VJi57nR8J/zcgjLt3dub5CGYhM2cL7
o5FdKFIMywhrrQo3eYgTtID8u0RT6xZYKmivhKsz4BIcfl9vgOLF6+gov5BCoxPm
dl1jWhLEt0G5cF4sxn3AXsPt5+3XgvR1K/Qq3T90YzjQOntaRTtoyIbTTEwTNHDP
uq5beYkqJan3yQ7w/7QcaZuaoom+pF4RimeOzTUm5XS+LU6v1ewyIVJel1SRq4MN
CnNOwth6sVMuFufpuz422Vkc
=OC1A
-----END PGP SIGNATURE-----
