-----BEGIN PGP SIGNED MESSAGE-----
Hash: SHA512

SHA256 (FreeBSD-14.5-BETA2-riscv-riscv64-bootonly.iso) = eebdf98019bb2aef4c80c2a9dcf398433eab9b95a279889042bcc2de3f31597f
SHA256 (FreeBSD-14.5-BETA2-riscv-riscv64-bootonly.iso.xz) = a447d6fc11910cc983a1cbfeecf7ed0614c299dbef0765f38ad1750b96313121
SHA256 (FreeBSD-14.5-BETA2-riscv-riscv64-disc1.iso) = 177440648f576b08f4120a13183d154958e7dcf24b680866f668e37d2fe59a84
SHA256 (FreeBSD-14.5-BETA2-riscv-riscv64-disc1.iso.xz) = 11b42348b82c5e6623605bf3e093b37923cb5fb8e546881d378eaae7c8ccdfbf
SHA256 (FreeBSD-14.5-BETA2-riscv-riscv64-memstick.img) = 945de495662e109795400c2ce4ad7471facdb044a278b49e18033a191dc9b98e
SHA256 (FreeBSD-14.5-BETA2-riscv-riscv64-memstick.img.xz) = 28263ada7f137e50e92f5eed4c184e0760e083b7e3a86a41247fd162eab9a8cd
SHA256 (FreeBSD-14.5-BETA2-riscv-riscv64-mini-memstick.img) = f9e20aeb370f041d591e458643e279a8b201eb53f3c4b28208d82bd60afd0244
SHA256 (FreeBSD-14.5-BETA2-riscv-riscv64-mini-memstick.img.xz) = 6a09236b42c583355d01cd866ce640256edf74e93b2a121a47bb9deab1173ecc
-----BEGIN PGP SIGNATURE-----

iQJPBAEBCgA5FiEEglY7hNBiDtwN+4ZBOJfy4i5lrT8FAmqAzmcbFIAAAAAABAAO
bWFudTIsMi41KzEuMTIsMiwzAAoJEDiX8uIuZa0/qOwP/2qlkv+fbmZDIw09TWpR
uO28SfUbvjPQ0wwi8/SDsNx9JGqDCA9YKXRQzDu71nceCOSQA43MCbx7N/iibq9R
My2g3YVGwnE48SOYGpVgYV8wU9SYVh+qmvTOsc2ANxaFNiDVewwOWERda6Tyoyx0
2mxqNq/h6R3CECj81N4CgGnyQQN4TWQcggmDu5mTLQB5x3d5X5ZHpELVROlY6D05
aeGXkckxfJF7lWbVQMP8bkbXLO7a8G+mdQ0ZBLg/AeNuZqwExK3kyWzyf2BGoy7k
XMATOfUbaEwiTjeylNSwbaq6JF4Iu/+iyrLvvK99iJDKeYufarEsI+KHLSiTPbMe
yqEreNUTVk950+iVlSXq2v4iGVSpZMZskn/FFvh5ZjH8ZJN75QXKH9TA5EL9LNyK
5XkDZfiw9UeNwvBNoHYUVUO7x3DVhcDyrw/Na0gVP0pdcPbyZFe+A4Y70McDOtTA
/LphdRABrra6qR8VnEmP2GpogiJgLbxXjOV3QHlqHRW5hW+u8su89kBActBmLyVA
1N05RNBpEjs3SVedPF0oClPf0BdyuBoSQCDAtaiTu6UXtWw1CmJ4g6qn0HtSvCxt
nrlYvHhGqq7yg1m9dhfMYKEWXJ7MT0h6PxZwaGyCsRl9jE753zdsyDwNpvlWWj0w
xpMiwIEQqBLpEU826bDBMz8T
=X2MM
-----END PGP SIGNATURE-----
