-----BEGIN PGP SIGNATURE-----

iQJPBAABCgA5FiEEthUnfoEIffdcgYM7bljekB8AGu8FAmq8DL0bFIAAAAAABAAO
bWFudTIsMi41KzEuMTIsMCwzAAoJEG5Y3pAfABrvqisP/2VIOvCH93IuIyAxzH6t
C0c3OWNbQ1ku0pXlThkVEmnA2ctc8qpELgEdLXVRwnWSwjU+ZI7emRXfbWcO+TYu
+cRNagEP5Fu9LjtuS/tRvWmn0e3Pbn4adSjg135O/aYLaV1zvAOsqdg1Wmo7GsXA
a2c0MAcIXCzexqFQAzXml/1Qlh3YCC+UBPoBPaphQ2qLdH69DD5vnrkjHU9V9+bh
kW5jfzggNlvsP2Q9D+nV3xwKBEWA/B7mv2eFznT3epyLH/fms3GmQN+mSZoeTVBK
HZPWOx0JjSfYQM5rAdmwAx3fR+pxZJ7VFQXXe4RvCG/I24pV/dT3thj0RwQLYGPd
ShMNBZOZWcybVf8/L0O+kft+eCPRkblnWCyxLPwLObO0cJsZLBtaRHDmz9oIiU46
DY4TXpmqgX1yd8S4XfJynEBClhEEx2AiC/OnpaT3nllR9Q44zkr/YjDl4TkWo+RZ
+01UZZjUpo50hdP3Ff1DVLj8SKawytk09XMivcq9GfH52ocuUeV+561gDeRYkjYd
uJVlGQQG6pTdqPMLsbxV0B8SnJ6ULzYFEPjVeGYlfHX4GqNgOP8iSTpG/nMiomCh
2zrV3iZ9yN5i5hUra/meHUuWd+OPno+gPFKKxkoDOAfnH/0QFZk+yvbdu6q1NABl
p4V6Ih5x3i0hzTssuwerwTDz
=Orr/
-----END PGP SIGNATURE-----
